; generated by Slic3r 1.37.1-prusa3d-win64 on 2017-09-22 at 21:06:24

; 

; external perimeters extrusion width = 0.45mm
; perimeters extrusion width = 0.45mm
; infill extrusion width = 0.45mm
; solid infill extrusion width = 0.45mm
; top infill extrusion width = 0.40mm
; first layer extrusion width = 0.42mm

M107
M115 U3.0.12 ; tell printer latest fw version
M83  ; extruder relative mode
M104 S215 ; set extruder temp
M140 S55 ; set bed temp
M190 S55 ; wait for bed temp
M109 S215 ; wait for extruder temp
G28 W ; home all without mesh bed level
G80 ; mesh bed leveling
G1 Y-3.0 F1000.0 ; go outside pritn area
G1 X60.0 E9.0  F1000.0 ; intro line
G1 X100.0 E12.5  F1000.0 ; intro line
; Filament gcode

G21 ; set units to millimeters
G90 ; use absolute coordinates
M83 ; use relative distances for extrusion
G1 E-0.80000 F2100.00000
G1 Z0.200 F7200.000
G1 X110.006 Y99.417 F7200.000
G1 E0.80000 F2100.00000
M204 S1000
G1 F1786
G1 X111.181 Y98.465 E0.04741
G1 X112.494 Y97.766 E0.04665
G1 X113.888 Y97.334 E0.04575
G1 X115.330 Y97.169 E0.04550
G1 X134.600 Y97.168 E0.60420
G1 X135.862 Y97.286 E0.03975
G1 X137.231 Y97.658 E0.04447
G1 X138.350 Y98.179 E0.03872
G1 X139.521 Y98.987 E0.04460
G1 X140.525 Y99.994 E0.04460
G1 X141.237 Y101.003 E0.03872
G1 X141.848 Y102.288 E0.04460
G1 X142.187 Y103.496 E0.03936
G1 X142.332 Y104.883 E0.04370
G1 X142.254 Y106.115 E0.03870
G1 X141.925 Y107.495 E0.04449
G1 X141.425 Y108.661 E0.03978
G1 X140.652 Y109.849 E0.04444
G1 X139.674 Y110.881 E0.04460
G1 X138.661 Y111.637 E0.03961
G1 X137.419 Y112.269 E0.04371
G1 X136.016 Y112.685 E0.04588
G1 X134.748 Y112.829 E0.04000
G1 X115.488 Y112.833 E0.60390
G1 X114.344 Y112.748 E0.03595
G1 X113.416 Y112.551 E0.02976
G1 X112.360 Y112.176 E0.03513
G1 X111.526 Y111.750 E0.02938
G1 X110.629 Y111.134 E0.03411
G1 X109.937 Y110.515 E0.02912
G1 X109.321 Y109.814 E0.02925
G1 X108.712 Y108.908 E0.03423
G1 X108.285 Y108.051 E0.03002
G1 X107.839 Y106.631 E0.04668
G1 X107.667 Y104.970 E0.05235
G1 X107.818 Y103.469 E0.04729
G1 X108.244 Y102.048 E0.04652
G1 X108.944 Y100.713 E0.04729
G1 X109.968 Y99.463 E0.05063
G1 X110.258 Y99.712 F7200.000
G1 F1786
G1 X110.331 Y99.627 E0.00352
G1 X111.593 Y98.650 E0.05005
G1 X112.860 Y98.027 E0.04427
G1 X114.006 Y97.695 E0.03741
G1 X115.353 Y97.545 E0.04249
G1 X134.599 Y97.545 E0.60345
G1 X135.791 Y97.657 E0.03753
G1 X137.102 Y98.013 E0.04261
G1 X138.165 Y98.507 E0.03675
G1 X139.282 Y99.279 E0.04255
G1 X140.238 Y100.239 E0.04249
G1 X140.912 Y101.195 E0.03670
G1 X141.496 Y102.422 E0.04261
G1 X141.819 Y103.575 E0.03753
G1 X141.956 Y104.927 E0.04261
G1 X141.845 Y106.281 E0.04260
G1 X141.545 Y107.440 E0.03754
G1 X140.999 Y108.655 E0.04177
G1 X140.330 Y109.648 E0.03753
G1 X139.390 Y110.629 E0.04261
G1 X138.287 Y111.423 E0.04261
G1 X137.228 Y111.939 E0.03694
G1 X135.931 Y112.317 E0.04237
G1 X134.736 Y112.452 E0.03771
G1 X115.492 Y112.456 E0.60336
G1 X114.389 Y112.373 E0.03470
G1 X113.516 Y112.187 E0.02798
G1 X112.504 Y111.828 E0.03366
G1 X111.713 Y111.423 E0.02786
G1 X110.830 Y110.812 E0.03366
G1 X110.172 Y110.215 E0.02786
G1 X109.478 Y109.396 E0.03366
G1 X108.998 Y108.648 E0.02786
G1 X108.544 Y107.684 E0.03343
G1 X108.162 Y106.321 E0.04439
G1 X108.045 Y104.885 E0.04516
G1 X108.240 Y103.303 E0.04999
G1 X108.699 Y101.943 E0.04498
G1 X109.397 Y100.716 E0.04427
G1 X110.219 Y99.758 E0.03959
G1 F5760
G1 X110.331 Y99.627 E-0.05963
G1 F5760
G1 X111.593 Y98.650 E-0.55288
G1 F5760
G1 X111.975 Y98.462 E-0.14749
G1 E-0.04000 F2100.00000
G1 X112.904 Y102.121 F7200.000
G1 E0.80000 F2100.00000
G1 F840
G1 X113.249 Y101.843 E0.01389
G1 X113.488 Y101.686 E0.00897
G1 X113.738 Y101.547 E0.00897
G1 X114.149 Y101.366 E0.01406
G1 X114.415 Y101.278 E0.00880
G1 X114.847 Y101.179 E0.01389
G1 X115.286 Y101.129 E0.01385
G1 X115.591 Y101.125 E0.00956
G1 X116.008 Y101.157 E0.01314
G1 X116.444 Y101.240 E0.01390
G1 X116.714 Y101.318 E0.00880
G1 X117.125 Y101.481 E0.01389
G1 X117.516 Y101.689 E0.01389
G1 X117.754 Y101.846 E0.00894
G1 X117.999 Y102.037 E0.00974
G1 X118.304 Y102.324 E0.01314
G1 X118.591 Y102.660 E0.01387
G1 X118.765 Y102.911 E0.00956
G1 X118.972 Y103.276 E0.01317
G1 X119.144 Y103.678 E0.01369
G1 X119.271 Y104.102 E0.01389
G1 X119.328 Y104.383 E0.00897
G1 X119.363 Y104.667 E0.00897
G1 X119.375 Y105.109 E0.01389
G1 X119.338 Y105.551 E0.01388
G1 X119.288 Y105.827 E0.00880
G1 X119.168 Y106.253 E0.01389
G1 X119.002 Y106.664 E0.01389
G1 X118.872 Y106.913 E0.00880
G1 X118.629 Y107.289 E0.01406
G1 X118.455 Y107.509 E0.00880
G1 X118.146 Y107.834 E0.01406
G1 X117.934 Y108.018 E0.00880
G1 X117.573 Y108.275 E0.01389
G1 X117.188 Y108.490 E0.01385
G1 X116.908 Y108.612 E0.00956
G1 X116.510 Y108.743 E0.01314
G1 X116.076 Y108.834 E0.01390
G1 X115.797 Y108.866 E0.00880
G1 X115.354 Y108.874 E0.01389
G1 X114.913 Y108.832 E0.01389
G1 X114.633 Y108.779 E0.00894
G1 X114.334 Y108.697 E0.00974
G1 X113.937 Y108.548 E0.01327
G1 X113.663 Y108.414 E0.00958
G1 X113.305 Y108.195 E0.01314
G1 X112.959 Y107.928 E0.01373
G1 X112.641 Y107.619 E0.01389
G1 X112.459 Y107.405 E0.00880
G1 X112.205 Y107.043 E0.01389
G1 X111.993 Y106.654 E0.01389
G1 X111.883 Y106.396 E0.00880
G1 X111.746 Y105.969 E0.01406
G1 X111.686 Y105.695 E0.00880
G1 X111.632 Y105.255 E0.01389
G1 X111.628 Y104.813 E0.01385
G1 X111.655 Y104.510 E0.00956
G1 X111.730 Y104.097 E0.01314
G1 X111.856 Y103.678 E0.01373
G1 X112.030 Y103.272 E0.01385
G1 X112.164 Y103.024 E0.00883
G1 X112.415 Y102.652 E0.01406
G1 X112.593 Y102.435 E0.00880
G1 X112.862 Y102.163 E0.01200
G1 X112.594 Y101.898 F7200.000
G1 F840
G1 X113.027 Y101.538 E0.01765
G1 X113.292 Y101.363 E0.00997
G1 X113.570 Y101.208 E0.00997
G1 X114.013 Y101.014 E0.01517
G1 X114.313 Y100.914 E0.00991
G1 X114.783 Y100.807 E0.01511
G1 X115.262 Y100.752 E0.01510
G1 X115.602 Y100.747 E0.01069
G1 X116.058 Y100.783 E0.01434
G1 X116.532 Y100.873 E0.01511
G1 X116.836 Y100.961 E0.00991
G1 X117.284 Y101.138 E0.01511
G1 X117.709 Y101.364 E0.01511
G1 X117.974 Y101.539 E0.00996
G1 X118.245 Y101.750 E0.01075
G1 X118.578 Y102.063 E0.01434
G1 X118.890 Y102.430 E0.01510
G1 X119.085 Y102.710 E0.01069
G1 X119.311 Y103.109 E0.01437
G1 X119.499 Y103.549 E0.01502
G1 X119.638 Y104.011 E0.01511
G1 X119.700 Y104.323 E0.00997
G1 X119.739 Y104.638 E0.00997
G1 X119.753 Y105.120 E0.01511
G1 X119.712 Y105.600 E0.01511
G1 X119.656 Y105.911 E0.00991
G1 X119.526 Y106.375 E0.01511
G1 X119.345 Y106.822 E0.01511
G1 X119.199 Y107.102 E0.00991
G1 X118.936 Y107.509 E0.01517
G1 X118.740 Y107.757 E0.00991
G1 X118.406 Y108.107 E0.01517
G1 X118.167 Y108.314 E0.00991
G1 X117.775 Y108.595 E0.01511
G1 X117.355 Y108.829 E0.01510
G1 X117.042 Y108.965 E0.01069
G1 X116.608 Y109.108 E0.01434
G1 X116.136 Y109.207 E0.01512
G1 X115.822 Y109.242 E0.00991
G1 X115.340 Y109.251 E0.01511
G1 X114.860 Y109.206 E0.01511
G1 X114.548 Y109.147 E0.00996
G1 X114.217 Y109.056 E0.01075
G1 X113.788 Y108.895 E0.01439
G1 X113.482 Y108.745 E0.01070
G1 X113.091 Y108.507 E0.01434
G1 X112.711 Y108.213 E0.01505
G1 X112.366 Y107.877 E0.01511
G1 X112.161 Y107.636 E0.00991
G1 X111.884 Y107.242 E0.01511
G1 X111.654 Y106.818 E0.01511
G1 X111.529 Y106.528 E0.00991
G1 X111.382 Y106.067 E0.01517
G1 X111.314 Y105.758 E0.00991
G1 X111.255 Y105.280 E0.01511
G1 X111.250 Y104.798 E0.01510
G1 X111.281 Y104.459 E0.01069
G1 X111.363 Y104.009 E0.01434
G1 X111.501 Y103.549 E0.01505
G1 X111.690 Y103.107 E0.01507
G1 X111.842 Y102.828 E0.00995
G1 X112.112 Y102.427 E0.01517
G1 X112.312 Y102.183 E0.00991
G1 X112.552 Y101.941 E0.01068
G1 X112.975 Y102.019 F7200.000
G1 F5760
G1 X113.027 Y101.538 E-0.21561
G1 F5760
G1 X113.292 Y101.363 E-0.11017
G1 F5760
G1 X113.570 Y101.208 E-0.11017
G1 F5760
G1 X114.013 Y101.014 E-0.16760
G1 F5760
G1 X114.313 Y100.914 E-0.10948
G1 F5760
G1 X114.446 Y100.884 E-0.04697
G1 E-0.04000 F2100.00000
G1 X117.261 Y101.681 F7200.000
G1 E0.80000 F2100.00000
G1 F1429
G1 X118.824 Y103.244 E0.06948
G1 X119.156 Y104.110 F7200.000
G1 F1429
G1 X116.637 Y101.592 E0.11195
G1 X116.378 Y101.515 E0.00850
G1 X115.947 Y101.436 E0.01379
G1 X119.057 Y104.546 E0.13824
G1 X119.080 Y104.693 E0.00470
G1 X119.091 Y105.114 E0.01324
G1 X115.387 Y101.410 E0.16465
G1 X114.899 Y101.457 E0.01539
G1 X119.041 Y105.600 E0.18412
G1 X118.937 Y106.030 E0.01392
G1 X114.466 Y101.559 E0.19874
G1 X114.079 Y101.706 E0.01303
G1 X118.795 Y106.422 E0.20964
G1 X118.620 Y106.782 E0.01257
G1 X113.724 Y101.886 E0.21763
G1 X113.394 Y102.090 E0.01221
G1 X118.410 Y107.107 E0.22299
G1 X118.169 Y107.400 E0.01194
G1 X113.094 Y102.331 E0.22545
G1 X112.831 Y102.597 E0.01175
G1 X117.904 Y107.669 E0.22549
G1 X117.605 Y107.905 E0.01196
G1 X112.593 Y102.894 E0.22277
G1 X112.382 Y103.217 E0.01214
G1 X117.280 Y108.115 E0.21774
G1 X116.926 Y108.296 E0.01249
G1 X112.207 Y103.576 E0.20977
G1 X112.064 Y103.968 E0.01311
G1 X116.533 Y108.437 E0.19866
G1 X116.101 Y108.540 E0.01396
G1 X111.962 Y104.401 E0.18398
G1 X111.911 Y104.884 E0.01529
G1 X115.613 Y108.586 E0.16455
G1 X115.365 Y108.591 E0.00780
G1 X115.054 Y108.561 E0.00982
G1 X111.940 Y105.448 E0.13838
G1 X112.019 Y105.895 E0.01426
G1 X112.098 Y106.141 E0.00810
G1 X114.601 Y108.643 E0.11124
G1 X113.757 Y108.334 F7200.000
G1 F1429
G1 X112.177 Y106.754 E0.07023
G1 F5760
G1 X113.728 Y108.305 E-0.76000
G1 E-0.04000 F2100.00000
G1 X130.632 Y105.255 F7200.000
G1 E0.80000 F2100.00000
G1 F840
G1 X130.628 Y104.813 E0.01385
G1 X130.655 Y104.510 E0.00956
G1 X130.730 Y104.097 E0.01314
G1 X130.856 Y103.678 E0.01373
G1 X131.030 Y103.272 E0.01385
G1 X131.164 Y103.024 E0.00883
G1 X131.415 Y102.652 E0.01406
G1 X131.593 Y102.435 E0.00880
G1 X131.904 Y102.121 E0.01389
G1 X132.249 Y101.843 E0.01389
G1 X132.738 Y101.547 E0.01793
G1 X133.149 Y101.366 E0.01406
G1 X133.415 Y101.278 E0.00880
G1 X133.847 Y101.179 E0.01389
G1 X134.286 Y101.129 E0.01385
G1 X134.591 Y101.125 E0.00956
G1 X135.008 Y101.157 E0.01314
G1 X135.444 Y101.240 E0.01390
G1 X135.714 Y101.318 E0.00880
G1 X136.125 Y101.481 E0.01389
G1 X136.516 Y101.689 E0.01389
G1 X136.999 Y102.037 E0.01866
G1 X137.304 Y102.324 E0.01314
G1 X137.591 Y102.660 E0.01387
G1 X137.765 Y102.911 E0.00956
G1 X137.972 Y103.276 E0.01317
G1 X138.144 Y103.678 E0.01369
G1 X138.271 Y104.102 E0.01389
G1 X138.363 Y104.667 E0.01793
G1 X138.375 Y105.109 E0.01389
G1 X138.338 Y105.551 E0.01388
G1 X138.288 Y105.827 E0.00880
G1 X138.168 Y106.253 E0.01389
G1 X138.002 Y106.664 E0.01389
G1 X137.872 Y106.913 E0.00880
G1 X137.629 Y107.289 E0.01406
G1 X137.455 Y107.509 E0.00880
G1 X137.146 Y107.834 E0.01406
G1 X136.934 Y108.018 E0.00880
G1 X136.573 Y108.275 E0.01389
G1 X136.188 Y108.490 E0.01385
G1 X135.908 Y108.612 E0.00956
G1 X135.510 Y108.743 E0.01314
G1 X135.076 Y108.834 E0.01390
G1 X134.797 Y108.866 E0.00880
G1 X134.354 Y108.874 E0.01389
G1 X133.913 Y108.832 E0.01389
G1 X133.334 Y108.697 E0.01866
G1 X132.937 Y108.548 E0.01327
G1 X132.663 Y108.414 E0.00958
G1 X132.305 Y108.195 E0.01314
G1 X131.959 Y107.928 E0.01373
G1 X131.641 Y107.619 E0.01389
G1 X131.459 Y107.405 E0.00880
G1 X131.205 Y107.043 E0.01389
G1 X130.993 Y106.654 E0.01389
G1 X130.883 Y106.396 E0.00880
G1 X130.746 Y105.969 E0.01406
G1 X130.686 Y105.695 E0.00880
G1 X130.639 Y105.315 E0.01200
G1 X130.265 Y105.361 F7200.000
G1 F840
G1 X130.250 Y104.798 E0.01763
G1 X130.281 Y104.459 E0.01069
G1 X130.363 Y104.009 E0.01434
G1 X130.501 Y103.549 E0.01505
G1 X130.690 Y103.107 E0.01507
G1 X130.842 Y102.828 E0.00995
G1 X131.112 Y102.427 E0.01517
G1 X131.312 Y102.183 E0.00991
G1 X131.651 Y101.840 E0.01511
G1 X132.027 Y101.538 E0.01511
G1 X132.570 Y101.208 E0.01993
G1 X133.013 Y101.014 E0.01517
G1 X133.313 Y100.914 E0.00991
G1 X133.783 Y100.807 E0.01511
G1 X134.262 Y100.752 E0.01510
G1 X134.602 Y100.747 E0.01069
G1 X135.058 Y100.783 E0.01434
G1 X135.532 Y100.873 E0.01511
G1 X135.836 Y100.961 E0.00991
G1 X136.284 Y101.138 E0.01511
G1 X136.709 Y101.364 E0.01511
G1 X136.974 Y101.539 E0.00996
G1 X137.245 Y101.750 E0.01075
G1 X137.578 Y102.063 E0.01434
G1 X137.890 Y102.430 E0.01510
G1 X138.085 Y102.710 E0.01069
G1 X138.311 Y103.109 E0.01437
G1 X138.499 Y103.549 E0.01502
G1 X138.638 Y104.011 E0.01511
G1 X138.739 Y104.638 E0.01993
G1 X138.753 Y105.120 E0.01511
G1 X138.712 Y105.600 E0.01511
G1 X138.656 Y105.911 E0.00991
G1 X138.526 Y106.375 E0.01511
G1 X138.345 Y106.822 E0.01511
G1 X138.199 Y107.102 E0.00991
G1 X137.936 Y107.509 E0.01517
G1 X137.740 Y107.757 E0.00991
G1 X137.406 Y108.107 E0.01517
G1 X137.167 Y108.314 E0.00991
G1 X136.775 Y108.595 E0.01511
G1 X136.355 Y108.829 E0.01510
G1 X136.042 Y108.965 E0.01069
G1 X135.608 Y109.108 E0.01434
G1 X135.136 Y109.207 E0.01512
G1 X134.822 Y109.242 E0.00991
G1 X134.340 Y109.251 E0.01511
G1 X133.860 Y109.206 E0.01511
G1 X133.548 Y109.147 E0.00996
G1 X133.217 Y109.056 E0.01075
G1 X132.788 Y108.895 E0.01439
G1 X132.482 Y108.745 E0.01070
G1 X132.091 Y108.507 E0.01434
G1 X131.711 Y108.213 E0.01505
G1 X131.366 Y107.877 E0.01511
G1 X131.161 Y107.636 E0.00991
G1 X130.884 Y107.242 E0.01511
G1 X130.654 Y106.818 E0.01511
G1 X130.529 Y106.528 E0.00991
G1 X130.382 Y106.067 E0.01517
G1 X130.314 Y105.758 E0.00991
G1 X130.272 Y105.420 E0.01068
G1 X130.596 Y105.136 F7200.000
G1 F5760
G1 X130.250 Y104.798 E-0.21547
G1 F5760
G1 X130.281 Y104.459 E-0.11807
G1 F5760
G1 X130.363 Y104.009 E-0.15839
G1 F5760
G1 X130.501 Y103.549 E-0.16630
G1 F5760
G1 X130.616 Y103.279 E-0.10177
G1 E-0.04000 F2100.00000
G1 X131.177 Y106.754 F7200.000
G1 E0.80000 F2100.00000
G1 F1429
G1 X132.757 Y108.334 E0.07023
G1 X133.601 Y108.643 F7200.000
G1 F1429
G1 X131.098 Y106.141 E0.11124
G1 X131.019 Y105.895 E0.00810
G1 X130.940 Y105.448 E0.01426
G1 X134.054 Y108.561 E0.13838
G1 X134.365 Y108.591 E0.00982
G1 X134.613 Y108.586 E0.00780
G1 X130.911 Y104.884 E0.16455
G1 X130.962 Y104.401 E0.01529
G1 X135.101 Y108.540 E0.18398
G1 X135.533 Y108.437 E0.01396
G1 X131.064 Y103.968 E0.19866
G1 X131.207 Y103.576 E0.01311
G1 X135.926 Y108.296 E0.20977
G1 X136.280 Y108.115 E0.01249
G1 X131.382 Y103.217 E0.21774
G1 X131.593 Y102.894 E0.01214
G1 X136.605 Y107.905 E0.22277
G1 X136.904 Y107.669 E0.01196
G1 X131.831 Y102.597 E0.22549
G1 X132.094 Y102.331 E0.01175
G1 X137.169 Y107.400 E0.22545
G1 X137.410 Y107.107 E0.01194
G1 X132.394 Y102.090 E0.22299
G1 X132.724 Y101.886 E0.01221
G1 X137.620 Y106.782 E0.21763
G1 X137.795 Y106.422 E0.01257
G1 X133.079 Y101.706 E0.20964
G1 X133.466 Y101.559 E0.01303
G1 X137.937 Y106.030 E0.19874
G1 X138.041 Y105.600 E0.01392
G1 X133.899 Y101.457 E0.18412
G1 X134.387 Y101.410 E0.01539
G1 X138.091 Y105.114 E0.16465
G1 X138.080 Y104.693 E0.01324
G1 X138.057 Y104.546 E0.00470
G1 X134.947 Y101.436 E0.13824
G1 X135.378 Y101.515 E0.01379
G1 X135.637 Y101.592 E0.00850
G1 X138.156 Y104.110 E0.11195
G1 X137.824 Y103.244 F7200.000
G1 F1429
G1 X136.261 Y101.681 E0.06948
M106 S255
G1 F5760
G1 X137.813 Y103.232 E-0.76000
G1 E-0.04000 F2100.00000
G1 Z0.400 F7200.000
M104 S210 ; set temperature
G1 X139.939 Y98.468 F7200.000
G1 X139.521 Y98.987 F7200.000
G1 E0.80000 F2100.00000
G1 F1366
G1 X140.525 Y99.994 E0.04460
G1 X141.237 Y101.003 E0.03872
G1 X141.848 Y102.288 E0.04460
G1 X142.187 Y103.496 E0.03936
G1 X142.332 Y104.883 E0.04370
G1 X142.254 Y106.115 E0.03870
G1 X141.925 Y107.495 E0.04449
G1 X141.425 Y108.661 E0.03978
G1 X140.652 Y109.849 E0.04444
G1 X139.674 Y110.881 E0.04460
G1 X138.661 Y111.637 E0.03961
G1 X137.419 Y112.269 E0.04371
G1 X136.016 Y112.685 E0.04588
G1 X134.748 Y112.829 E0.04000
G1 X115.488 Y112.833 E0.60390
G1 X114.344 Y112.748 E0.03595
G1 X113.416 Y112.551 E0.02976
G1 X112.360 Y112.176 E0.03513
G1 X111.526 Y111.750 E0.02938
G1 X110.629 Y111.134 E0.03411
G1 X109.937 Y110.515 E0.02912
G1 X109.321 Y109.814 E0.02925
G1 X108.712 Y108.908 E0.03423
G1 X108.285 Y108.051 E0.03002
G1 X107.839 Y106.631 E0.04668
G1 X107.667 Y104.970 E0.05235
G1 X107.818 Y103.469 E0.04729
G1 X108.244 Y102.048 E0.04652
G1 X108.944 Y100.713 E0.04729
G1 X110.006 Y99.417 E0.05251
G1 X111.181 Y98.465 E0.04741
G1 X112.494 Y97.766 E0.04665
G1 X113.888 Y97.334 E0.04575
G1 X115.330 Y97.169 E0.04550
G1 X134.600 Y97.168 E0.60420
G1 X135.862 Y97.286 E0.03975
G1 X137.231 Y97.658 E0.04447
G1 X138.350 Y98.179 E0.03872
G1 X139.471 Y98.953 E0.04272
G1 F5760
G1 X140.525 Y99.994 E-0.51311
G1 F5760
G1 X140.936 Y100.577 E-0.24689
