; generated by PrusaSlicer 2.6.0+win64 on 2023-07-07 at 14:32:43 UTC


;
;

;
;
; 

; external perimeters extrusion width = 0.44mm
; perimeters extrusion width = 0.40mm
; infill extrusion width = 0.40mm
; solid infill extrusion width = 0.40mm
; top infill extrusion width = 0.40mm
; first layer extrusion width = 0.28mm

M73 P0 R3
M73 Q0 S3
;TYPE:Custom
M104 S230 ; set final nozzle temp
M190 S60 ; set and wait for bed temp to stabilize
M109 S230 ; wait for nozzle temp to stabilize
G28 ;Home
M420 S1; restore saved Auto Bed Leveling data
G1 E10 F3600; push out retracted filament(fix for over retraction after prime)
G21 ; set units to millimeters
G90 ; use absolute coordinates
M82 ; use absolute distances for extrusion
G92 E0
; Filament gcode
M107
;LAYER_CHANGE
;Z:0.14
;HEIGHT:0.14
;BEFORE_LAYER_CHANGE
;0.14
G1 E-3 F3600
G92 E0
G1 Z.14 F15000
;AFTER_LAYER_CHANGE
;0.14
G1 X111.155 Y110.702
G1 E3 F3600
M204 S2500
;TYPE:Skirt/Brim
;WIDTH:0.28
G1 F1800
G1 X112.608 Y109.553 E3.02695
G1 X114.335 Y108.681 E3.0551
G1 X116.12 Y108.19 E3.08203
G1 X117.974 Y108.058 E3.10907
G1 X119.805 Y108.288 E3.13592
G1 X121.562 Y108.872 E3.16286
G1 X123.104 Y109.738 E3.18859
G1 X124.517 Y110.941 E3.21559
G1 X125.707 Y112.462 E3.24369
G1 X126.509 Y114.042 E3.26947
G1 X127.015 Y115.824 E3.29642
G1 X127.159 Y117.75 E3.32452
G1 X126.949 Y119.51 E3.35031
M73 P1 R3
M73 Q1 S3
G1 X126.381 Y121.269 E3.3772
G1 X125.429 Y122.954 E3.40536
G1 X124.217 Y124.354 E3.4323
G1 X122.827 Y125.447 E3.45803
G1 X121.178 Y126.291 E3.48498
G1 X119.396 Y126.798 E3.51193
G1 X117.467 Y126.942 E3.54007
G1 X115.707 Y126.732 E3.56586
G1 X113.872 Y126.128 E3.59397
G1 X112.263 Y125.212 E3.62091
G1 X110.863 Y124 E3.64785
G1 X109.77 Y122.61 E3.67358
G1 X108.926 Y120.961 E3.70053
G1 X108.419 Y119.176 E3.72753
G1 X108.275 Y117.25 E3.75563
G1 X108.505 Y115.412 E3.78258
G1 X109.089 Y113.655 E3.80952
G1 X109.955 Y112.113 E3.83525
G1 X111.116 Y110.748 E3.86132
G1 X111.306 Y110.909 F15000
G1 F1800
G1 X112.738 Y109.766 E3.88798
G1 X114.417 Y108.917 E3.91535
G1 X116.155 Y108.438 E3.94158
G1 X117.96 Y108.307 E3.96791
G1 X119.741 Y108.53 E3.99402
G1 X121.453 Y109.097 E4.02026
G1 X122.957 Y109.94 E4.04534
G1 X124.333 Y111.11 E4.07162
G1 X125.491 Y112.588 E4.09894
G1 X126.275 Y114.129 E4.12409
G1 X126.768 Y115.863 E4.15032
G1 X126.91 Y117.735 E4.17763
M73 P2 R3
M73 Q2 S3
G1 X126.706 Y119.451 E4.20277
G1 X126.154 Y121.164 E4.22895
G1 X125.23 Y122.803 E4.25632
G1 X124.051 Y124.167 E4.28255
G1 X122.696 Y125.234 E4.30764
G1 X121.091 Y126.057 E4.33388
G1 X119.357 Y126.551 E4.36011
G1 X117.482 Y126.693 E4.38747
G1 X115.766 Y126.489 E4.41261
G1 X113.981 Y125.903 E4.43994
G1 X112.414 Y125.013 E4.46616
G1 X111.05 Y123.834 E4.49239
G1 X109.983 Y122.479 E4.51748
G1 X109.16 Y120.874 E4.54372
G1 X108.666 Y119.137 E4.56999
G1 X108.524 Y117.265 E4.5973
G1 X108.747 Y115.476 E4.62353
G1 X109.314 Y113.764 E4.64977
G1 X110.157 Y112.26 E4.67485
G1 X111.267 Y110.954 E4.69979
G1 X111.456 Y111.115 F15000
G1 F1800
G1 X112.869 Y109.979 E4.72617
G1 X114.498 Y109.153 E4.75274
G1 X116.189 Y108.685 E4.77827
G1 X117.945 Y108.557 E4.80389
G1 X119.678 Y108.772 E4.8293
G1 X121.343 Y109.322 E4.85481
G1 X122.81 Y110.143 E4.87927
G1 X124.15 Y111.28 E4.90484
G1 X125.276 Y112.715 E4.93138
G1 X126.04 Y114.215 E4.95587
G1 X126.521 Y115.902 E4.98139
G1 X126.66 Y117.721 E5.00793
M73 P3 R3
M73 Q3 S3
G1 X126.463 Y119.393 E5.03242
G1 X125.927 Y121.06 E5.0579
G1 X125.031 Y122.652 E5.08448
G1 X123.885 Y123.98 E5.11
G1 X122.565 Y125.021 E5.13446
G1 X121.005 Y125.822 E5.15997
G1 X119.318 Y126.304 E5.1855
G1 X117.496 Y126.443 E5.21208
G1 X115.824 Y126.246 E5.23657
G1 X114.091 Y125.678 E5.2631
G1 X112.565 Y124.813 E5.28862
G1 X111.237 Y123.668 E5.31413
G1 X110.196 Y122.348 E5.33859
G1 X109.395 Y120.788 E5.3641
G1 X108.913 Y119.098 E5.38967
G1 X108.774 Y117.279 E5.41621
G1 X108.989 Y115.539 E5.44172
G1 X109.539 Y113.874 E5.46723
G1 X110.36 Y112.407 E5.49169
G1 X111.417 Y111.161 E5.51546
G1 X111.606 Y111.321 F15000
G1 F1800
G1 X111.664 Y111.253 E5.51676
G1 X112.999 Y110.192 E5.54157
G1 X114.58 Y109.389 E5.56737
G1 X116.223 Y108.933 E5.59218
G1 X117.93 Y108.806 E5.61708
G1 X119.615 Y109.013 E5.64178
G1 X121.234 Y109.547 E5.66658
G1 X122.663 Y110.345 E5.69039
G1 X123.966 Y111.449 E5.71524
G1 X125.06 Y112.841 E5.741
G1 X125.806 Y114.301 E5.76485
G1 X126.274 Y115.941 E5.78966
G1 X126.411 Y117.706 E5.81542
M73 P4 R3
M73 Q4 S3
G1 X126.22 Y119.334 E5.83927
G1 X125.7 Y120.955 E5.86404
G1 X124.831 Y122.501 E5.88984
G1 X123.719 Y123.793 E5.91464
G1 X122.435 Y124.808 E5.93845
G1 X120.918 Y125.588 E5.96327
G1 X119.279 Y126.057 E5.98807
G1 X117.511 Y126.194 E6.01387
G1 X115.883 Y126.003 E6.03772
G1 X114.2 Y125.453 E6.06348
G1 X112.716 Y124.614 E6.08828
G1 X111.424 Y123.502 E6.11308
G1 X110.409 Y122.218 E6.13689
G1 X109.629 Y120.701 E6.16171
G1 X109.16 Y119.059 E6.18655
G1 X109.023 Y117.294 E6.21231
G1 X109.23 Y115.602 E6.23711
G1 X109.764 Y113.983 E6.26191
G1 X110.562 Y112.554 E6.28572
G1 X111.568 Y111.367 E6.30836
G1 X111.757 Y111.527 F15000
G1 F1800
G1 X111.834 Y111.437 E6.31008
G1 X113.13 Y110.405 E6.33418
G1 X114.662 Y109.625 E6.35919
G1 X116.257 Y109.181 E6.38328
G1 X117.915 Y109.056 E6.40747
G1 X119.552 Y109.255 E6.43146
G1 X121.125 Y109.772 E6.45555
G1 X122.516 Y110.547 E6.47872
G1 X123.782 Y111.619 E6.50285
G1 X124.845 Y112.968 E6.52784
G1 X125.571 Y114.388 E6.55104
G1 X126.027 Y115.98 E6.57513
G1 X126.161 Y117.691 E6.6001
G1 X125.977 Y119.276 E6.62331
G1 X125.473 Y120.85 E6.64736
M73 P5 R3
M73 Q5 S3
G1 X124.632 Y122.351 E6.67239
G1 X123.553 Y123.606 E6.69647
G1 X122.304 Y124.595 E6.71965
G1 X120.832 Y125.353 E6.74374
G1 X119.24 Y125.81 E6.76784
G1 X117.526 Y125.944 E6.79285
G1 X115.941 Y125.76 E6.81606
G1 X114.309 Y125.228 E6.84103
G1 X112.867 Y124.415 E6.86511
G1 X111.611 Y123.336 E6.8892
G1 X110.622 Y122.087 E6.91238
G1 X109.864 Y120.615 E6.93647
G1 X109.407 Y119.02 E6.96061
G1 X109.273 Y117.309 E6.98558
G1 X109.472 Y115.665 E7.00967
G1 X109.989 Y114.092 E7.03376
G1 X110.764 Y112.701 E7.05693
G1 X111.718 Y111.573 E7.07842
G1 E4.07842 F3600
G92 E0
G1 X114.827 Y114.727 F15000
G1 E3 F3600
;TYPE:Perimeter
M73 P5 R2
M73 Q5 S2
G1 F1800
G1 X114.827 Y120.37 E3.0821
G1 X115.94 Y121.474 E3.10491
G1 X115.58 Y121.299 E3.11073
G1 X115.302 Y121.129 E3.11547
G1 X114.88 Y120.809 E3.12318
G1 X114.64 Y120.588 E3.12793
G1 X114.289 Y120.192 E3.13563
G1 X114.092 Y119.922 E3.14049
G1 X113.918 Y119.637 E3.14535
G1 X113.687 Y119.161 E3.15305
G1 X113.574 Y118.855 E3.1578
G1 X113.44 Y118.343 E3.1655
G1 X113.389 Y118.015 E3.17033
G1 X113.358 Y117.5 E3.17784
G1 X113.389 Y116.979 E3.18543
G1 X113.44 Y116.658 E3.19016
G1 X113.574 Y116.145 E3.19787
G1 X113.687 Y115.839 E3.20262
G1 X113.918 Y115.363 E3.21032
G1 X114.092 Y115.078 E3.21518
G1 X114.289 Y114.808 E3.22004
G1 X114.641 Y114.412 E3.22775
G1 X114.88 Y114.191 E3.23249
G1 X115.302 Y113.871 E3.2402
G1 X115.58 Y113.701 E3.24494
G1 X115.94 Y113.526 E3.25076
G1 X114.827 Y114.63 E3.27357
G1 X114.827 Y114.667 E3.27411
M73 P6 R2
M73 Q6 S2
G1 X115.077 Y114.783 F15000
G1 F1800
G1 X115.077 Y120.266 E3.35388
G1 X116.635 Y121.811 E3.3858
G1 X116.946 Y122.073 E3.39172
G1 X116.478 Y121.943 E3.39879
G1 X115.954 Y121.759 E3.40687
G1 X115.46 Y121.519 E3.41486
G1 X115.161 Y121.336 E3.41996
G1 X114.719 Y121.001 E3.42803
G1 X114.462 Y120.763 E3.43313
G1 X114.094 Y120.349 E3.44119
G1 X113.884 Y120.061 E3.44638
G1 X113.698 Y119.757 E3.45156
G1 X113.456 Y119.259 E3.45962
G1 X113.335 Y118.93 E3.46472
G1 X113.195 Y118.394 E3.47278
G1 X113.14 Y118.042 E3.47796
G1 X113.108 Y117.5 E3.48586
G1 X113.14 Y116.952 E3.49385
G1 X113.195 Y116.606 E3.49895
G1 X113.335 Y116.07 E3.50701
G1 X113.456 Y115.741 E3.51211
G1 X113.698 Y115.243 E3.52017
G1 X113.884 Y114.939 E3.52535
G1 X114.094 Y114.651 E3.53054
G1 X114.462 Y114.237 E3.5386
G1 X114.719 Y113.999 E3.5437
G1 X115.161 Y113.664 E3.55177
G1 X115.46 Y113.481 E3.55687
G1 X115.954 Y113.241 E3.56486
G1 X116.479 Y113.057 E3.57295
G1 X116.926 Y112.943 E3.57966
G1 X116.644 Y113.179 E3.58501
G1 X115.085 Y114.726 E3.61696
G1 X115.327 Y114.864 F15000
;TYPE:External perimeter
G1 F1800
G1 X115.327 Y114.838 E3.61734
G1 X116.813 Y113.364 E3.64779
G1 X117.19 Y113.048 E3.65495
G1 X117.717 Y112.69 E3.66422
G1 X118.249 Y113.053 E3.67359
G1 X118.631 Y113.374 E3.68085
G1 X120.107 Y114.838 E3.7111
G1 X120.107 Y120.162 E3.78856
G1 X118.631 Y121.627 E3.81882
G1 X118.249 Y121.947 E3.82607
G1 X117.717 Y122.31 E3.83544
G1 X117.185 Y121.947 E3.84481
G1 X116.804 Y121.627 E3.85205
G1 X115.327 Y120.162 E3.88232
G1 X115.327 Y114.924 E3.95853
G1 X115.304 Y114.853 F15000
G1 E.95853 F3600
G92 E0
G1 X119.494 Y113.526 F15000
G1 E3 F3600
;TYPE:Perimeter
G1 F1800
G1 X119.854 Y113.701 E3.00582
G1 X120.139 Y113.875 E3.01068
G1 X120.409 Y114.072 E3.01554
G1 X120.805 Y114.423 E3.02324
G1 X121.03 Y114.667 E3.02807
M73 P7 R2
M73 Q7 S2
G1 X121.341 Y115.078 E3.03557
G1 X121.605 Y115.528 E3.04316
G1 X121.744 Y115.831 E3.04801
G1 X121.862 Y116.15 E3.05296
G1 X121.994 Y116.657 E3.06058
G1 X122.045 Y116.985 E3.06541
G1 X122.076 Y117.5 E3.07292
G1 X122.045 Y118.021 E3.08051
G1 X121.993 Y118.35 E3.08536
G1 X121.913 Y118.68 E3.0903
G1 X121.741 Y119.176 E3.09794
G1 X121.605 Y119.472 E3.10268
G1 X121.341 Y119.922 E3.11027
G1 X121.026 Y120.337 E3.11785
G1 X120.805 Y120.577 E3.1226
G1 X120.409 Y120.928 E3.1303
G1 X120.139 Y121.125 E3.13516
G1 X119.854 Y121.299 E3.14002
G1 X119.494 Y121.474 E3.14584
G1 X120.607 Y120.37 E3.16865
G1 X120.607 Y114.63 E3.25216
G1 X119.537 Y113.568 E3.27409
G1 X118.496 Y112.934 F15000
G1 F1800
G1 X119.142 Y113.115 E3.28385
G1 X119.475 Y113.239 E3.28902
G1 X119.974 Y113.481 E3.29709
G1 X120.278 Y113.667 E3.30227
G1 X120.566 Y113.877 E3.30746
G1 X120.98 Y114.245 E3.31552
G1 X121.222 Y114.506 E3.3207
G1 X121.549 Y114.939 E3.32859
G1 X121.827 Y115.413 E3.33658
G1 X121.976 Y115.736 E3.34176
G1 X122.101 Y116.075 E3.34702
G1 X122.239 Y116.606 E3.355
G1 X122.294 Y116.958 E3.36018
G1 X122.326 Y117.5 E3.36808
G1 X122.294 Y118.048 E3.37607
G1 X122.238 Y118.399 E3.38124
G1 X122.153 Y118.751 E3.38651
G1 X121.973 Y119.269 E3.39449
G1 X121.827 Y119.587 E3.39958
G1 X121.549 Y120.061 E3.40757
G1 X121.218 Y120.498 E3.41555
G1 X120.98 Y120.755 E3.42065
G1 X120.566 Y121.123 E3.42871
G1 X120.278 Y121.333 E3.4339
G1 X119.974 Y121.519 E3.43908
G1 X119.475 Y121.761 E3.44715
G1 X119.14 Y121.886 E3.45235
G1 X118.488 Y122.073 E3.46222
G1 X118.799 Y121.811 E3.46814
G1 X120.357 Y120.266 E3.50006
G1 X120.357 Y114.734 E3.58054
G1 X118.799 Y113.189 E3.61246
G1 X118.541 Y112.972 E3.61736
G1 X117.769 Y112.499 F15000
;TYPE:External perimeter
G1 F1800
G1 X117.991 Y112.532 E3.62063
G1 X119.219 Y112.877 E3.63919
G1 X119.573 Y113.009 E3.64469
G1 X120.094 Y113.262 E3.65312
G1 X120.417 Y113.459 E3.65862
G1 X120.723 Y113.682 E3.66413
G1 X121.156 Y114.066 E3.67255
G1 X121.414 Y114.346 E3.67809
G1 X121.757 Y114.8 E3.68637
G1 X122.048 Y115.297 E3.69475
G1 X122.207 Y115.64 E3.70025
G1 X122.339 Y116 E3.70583
G1 X122.484 Y116.555 E3.71418
G1 X122.543 Y116.931 E3.71972
G1 X122.576 Y117.5 E3.72801
G1 X122.543 Y118.074 E3.73637
G1 X122.483 Y118.448 E3.74188
G1 X122.393 Y118.821 E3.74746
G1 X122.205 Y119.363 E3.75581
G1 X122.048 Y119.703 E3.76126
G1 X121.757 Y120.2 E3.76964
G1 X121.41 Y120.659 E3.77801
G1 X121.156 Y120.934 E3.78346
G1 X120.723 Y121.318 E3.79188
G1 X120.417 Y121.541 E3.79739
G1 X120.094 Y121.738 E3.80289
G1 X119.573 Y121.991 E3.81132
G1 X119.219 Y122.123 E3.81682
G1 X118.647 Y122.289 E3.82549
M73 P8 R2
M73 Q8 S2
G1 X117.989 Y122.468 E3.83541
G1 X117.717 Y122.508 E3.83941
G1 X117.445 Y122.468 E3.84341
G1 X116.403 Y122.181 E3.85913
G1 X115.858 Y121.99 E3.86753
G1 X115.34 Y121.738 E3.87591
G1 X115.02 Y121.542 E3.88137
G1 X114.558 Y121.193 E3.88979
G1 X114.283 Y120.939 E3.89524
G1 X113.899 Y120.506 E3.90366
G1 X113.676 Y120.2 E3.90917
G1 X113.479 Y119.877 E3.91467
G1 X113.226 Y119.357 E3.92308
G1 X113.096 Y119.005 E3.92854
G1 X112.95 Y118.445 E3.93696
G1 X112.891 Y118.069 E3.9425
G1 X112.858 Y117.5 E3.95079
G1 X112.891 Y116.925 E3.95917
G1 X112.95 Y116.555 E3.96462
G1 X113.096 Y115.995 E3.97304
G1 X113.226 Y115.643 E3.9785
G1 X113.479 Y115.123 E3.98691
G1 X113.676 Y114.8 E3.99241
G1 X113.899 Y114.494 E3.99792
G1 X114.283 Y114.061 E4.00634
G1 X114.558 Y113.807 E4.01179
G1 X115.02 Y113.458 E4.02021
G1 X115.34 Y113.262 E4.02567
G1 X115.858 Y113.01 E4.03405
G1 X116.407 Y112.818 E4.04251
G1 X117.067 Y112.649 E4.05242
G1 X117.357 Y112.554 E4.05686
G1 X117.71 Y112.494 E4.06207
G1 X117.876 Y112.696 F15000
G1 X117.919 Y112.661
;TYPE:Gap fill
;WIDTH:0.117023
G1 F1800
G1 X118.102 Y112.743 E4.06309
;WIDTH:0.199734
G1 X118.385 Y112.875 E4.06617
G1 X117.499 Y112.662 F15000
;WIDTH:0.146524
G1 F1800
G1 X117.036 Y112.885 E4.06965
G1 X114.807 Y114.451 F15000
;WIDTH:0.0661823
G1 F1800
G1 X114.702 Y114.555 E4.06996
G1 X114.715 Y115.248 F15000
;TYPE:Solid infill
;WIDTH:0.286533
G1 F4200
G1 X114.444 Y114.977 E4.07568
G1 X114.291 Y115.187 E4.07956
G1 X114.602 Y115.498 E4.08613
G1 X114.602 Y115.861 E4.09155
G1 X114.152 Y115.411 E4.10105
G1 X114.028 Y115.65 E4.10507
G1 X114.602 Y116.224 E4.11719
G1 X114.602 Y116.586 E4.12259
G1 X113.91 Y115.894 E4.1372
G1 X113.809 Y116.156 E4.14139
G1 X114.602 Y116.949 E4.15813
G1 X114.602 Y117.312 E4.16355
G1 X113.73 Y116.439 E4.18197
G1 X113.657 Y116.729 E4.18643
G1 X114.602 Y117.675 E4.20639
G1 X114.602 Y118.037 E4.21179
G1 X113.611 Y117.046 E4.23271
G1 X113.59 Y117.388 E4.23783
G1 X114.602 Y118.4 E4.2592
G1 X114.602 Y118.763 E4.26462
G1 X113.599 Y117.76 E4.2858
G1 X113.64 Y118.163 E4.29185
G1 X114.602 Y119.126 E4.31217
G1 X114.602 Y119.488 E4.31757
G1 X113.749 Y118.635 E4.33558
G1 X113.789 Y118.787 E4.33793
G1 X113.96 Y119.209 E4.34473
G1 X114.715 Y119.963 E4.36066
G1 X114.702 Y120.445 F15000
;TYPE:Gap fill
;WIDTH:0.066177
G1 F1800
G1 X114.807 Y120.549 E4.36097
G1 X117.057 Y122.13 F15000
;WIDTH:0.158018
G1 F1800
G1 X117.336 Y122.259 E4.36326
;WIDTH:0.0753354
G1 X117.515 Y122.339 E4.36378
G1 X117.919 Y122.339 F15000
;WIDTH:0.116689
G1 F1800
G1 X118.098 Y122.259 E4.36477
;WIDTH:0.199335
G1 X118.377 Y122.131 E4.36779
G1 X120.66 Y120.516 F15000
;WIDTH:0.068809
G1 F1800
G1 X120.744 Y120.434 E4.36805
G1 X120.844 Y120.275 E4.36847
G1 X120.719 Y119.524 F15000
;TYPE:Solid infill
;WIDTH:0.292967
G1 F4200
G1 X121.084 Y119.889 E4.37637
G1 X121.231 Y119.664 E4.38048
G1 X120.832 Y119.265 E4.38912
G1 X120.832 Y118.893 E4.39481
G1 X121.369 Y119.43 E4.40643
G1 X121.491 Y119.181 E4.41067
G1 X120.832 Y118.521 E4.42494
G1 X120.832 Y118.15 E4.43062
G1 X121.595 Y118.912 E4.44712
G1 X121.69 Y118.636 E4.45159
G1 X120.832 Y117.778 E4.47016
G1 X120.832 Y117.406 E4.47585
G1 X121.764 Y118.338 E4.49602
G1 X121.817 Y118.02 E4.50095
G1 X120.832 Y117.034 E4.52228
G1 X120.832 Y116.662 E4.52797
G1 X121.84 Y117.671 E4.5498
G1 X121.85 Y117.5 E4.55242
G1 X121.838 Y117.297 E4.55553
G1 X120.832 Y116.29 E4.57731
G1 X120.832 Y115.919 E4.58299
M73 P9 R2
M73 Q9 S2
G1 X121.803 Y116.889 E4.60399
G1 X121.698 Y116.413 E4.61145
G1 X120.832 Y115.547 E4.63019
G1 X120.832 Y115.175 E4.63588
G1 X121.704 Y116.047 E4.65475
G1 X120.844 Y114.725 F15000
;TYPE:Gap fill
;WIDTH:0.0686983
G1 F1800
G1 X120.744 Y114.566 E4.65517
G1 X120.66 Y114.484 E4.65543
M106 S255
;LAYER_CHANGE
;Z:0.34
;HEIGHT:0.2
;BEFORE_LAYER_CHANGE
;0.34
G1 E1.65543 F3600
G92 E0
G1 Z.34 F15000
;AFTER_LAYER_CHANGE
;0.34
M104 S200 ; set temperature
G1 X115.447 Y114.889
G1 E3 F3600
;TYPE:External perimeter
;WIDTH:0.44
G1 F9000
G1 X117.717 Y112.618 E3.10602
G1 X119.987 Y114.888 E3.21201
G1 X119.987 Y120.112 E3.38449
G1 X117.717 Y122.382 E3.49048
G1 X115.447 Y120.112 E3.59647
G1 X115.447 Y114.949 E3.76694
G1 X115.214 Y114.564 F15000
G1 X114.713 Y114.737
;TYPE:Perimeter
;WIDTH:0.4
G1 F9000
G1 X114.713 Y120.416 E3.93556
G1 X115.222 Y120.925 E3.95693
G1 X114.953 Y120.722 E3.96694
G1 X114.722 Y120.508 E3.97629
G1 X114.378 Y120.121 E3.99166
G1 X114.187 Y119.858 E4.00131
G1 X114.018 Y119.582 E4.01092
G1 X113.792 Y119.116 E4.0263
G1 X113.683 Y118.821 E4.03564
G1 X113.552 Y118.319 E4.05104
G1 X113.503 Y118.008 E4.06039
G1 X113.473 Y117.5 E4.0755
G1 X113.503 Y116.992 E4.09061
G1 X113.552 Y116.681 E4.09996
G1 X113.683 Y116.179 E4.11536
